app/assets/img/ic-employment.svg

<svg fill="none" height="50" viewBox="0 0 51 50" width="51" xmlns="http://www.w3.org/2000/svg"><g fill="#63b867"><path d="m21.4521 4.16667c5.25 0 9.9333 2.44584 12.9875 6.25003h5.025c-3.6083-6.2167-10.3229-10.4167-18.0125-10.4167-7.6938 0-14.40834 4.2-18.01876 10.4167h5.025c3.05836-3.80419 7.74166-6.25003 12.99376-6.25003z"/><path d="m12.5021 22.9167c0 3.4521 2.8062 6.25 6.2521 6.25 3.4437 0 6.25-2.7979 6.25-6.25v6.25h7.2917c2.8729 0 5.2083-2.3354 5.2083-5.2083 0-1.1792-.4042-2.2521-1.0667-3.1251.6604-.8666 1.0667-1.9458 1.0667-3.125 0-2.8666-2.3354-5.2083-5.2083-5.2083h-7.2917v6.25c0-3.4458-2.8063-6.25-6.25-6.25-3.4459 0-6.2521 2.8063-6.2521 6.25v-6.25h-4.16668v10.4167c0 1.1562-.93333 2.0854-2.08542 2.0854-1.14791 0-2.08333-.9292-2.08333-2.0854h-4.16667c0 3.4521 2.80417 6.25 6.25 6.25 3.44584 0 6.2521-2.7979 6.2521-6.25zm16.6688-6.2521h3.125c.577 0 1.0416.4729 1.0416 1.0437 0 .575-.4646 1.0417-1.0416 1.0417h-3.125zm0 6.2521h3.125c.577 0 1.0416.4708 1.0416 1.0417 0 .575-.4646 1.0437-1.0416 1.0437h-3.125zm-12.5021-4.1667c0-1.15.9333-2.0875 2.0854-2.0875 1.1479 0 2.0833.9375 2.0833 2.0875v4.1667c0 1.1562-.9354 2.0854-2.0833 2.0854-1.1521 0-2.0854-.9292-2.0854-2.0854z"/><path d="m42.7167 22.9167h2.0813c.575 0 1.0437.4708 1.0437 1.0417 0 .575-.4687 1.0437-1.0437 1.0437h-7.2938v4.1646h7.2938c2.8729 0 5.2104-2.3354 5.2104-5.2083 0-2.8626-2.3375-5.2084-5.2104-5.2084h-2.0813c-.5771 0-1.0458-.4667-1.0458-1.0417 0-.5708.4687-1.0437 1.0458-1.0437h7.2917v-4.1646h-7.2917c-2.8729 0-5.2125 2.3417-5.2125 5.2083 0 2.8709 2.3396 5.2084 5.2125 5.2084z"/><path d="m50.0084 46.4438-12.4667-12.4667c.7042-.8646 1.3625-1.7604 1.925-2.7271h-5.025c-3.0583 3.8063-7.7396 6.25-12.9875 6.25s-9.9334-2.4416-12.98961-6.25h-5.02709c3.60626 6.2146 10.3229 10.4167 18.0125 10.4167 4.9938 0 9.5604-1.7917 13.1479-4.7375l12.4626 12.4583z"/></g></svg>

<svg width="51" height="50" viewBox="0 0 51 50" fill="none" xmlns="http://www.w3.org/2000/svg">
<path d="M21.4521 4.16667C26.7021 4.16667 31.3854 6.61251 34.4396 10.4167H39.4646C35.8563 4.2 29.1417 0 21.4521 0C13.7583 0 7.04376 4.2 3.43334 10.4167H8.45834C11.5167 6.61251 16.2 4.16667 21.4521 4.16667Z" fill="#63B867"/>
<path d="M12.5021 22.9167C12.5021 26.3688 15.3083 29.1667 18.7542 29.1667C22.1979 29.1667 25.0042 26.3688 25.0042 22.9167V29.1667H32.2959C35.1688 29.1667 37.5042 26.8313 37.5042 23.9584C37.5042 22.7792 37.1 21.7063 36.4375 20.8333C37.0979 19.9667 37.5042 18.8875 37.5042 17.7083C37.5042 14.8417 35.1688 12.5 32.2959 12.5H25.0042V18.75C25.0042 15.3042 22.1979 12.5 18.7542 12.5C15.3083 12.5 12.5021 15.3063 12.5021 18.75V12.5H8.33542V22.9167C8.33542 24.0729 7.40209 25.0021 6.25 25.0021C5.10209 25.0021 4.16667 24.0729 4.16667 22.9167H0C0 26.3688 2.80417 29.1667 6.25 29.1667C9.69584 29.1667 12.5021 26.3688 12.5021 22.9167ZM29.1709 16.6646H32.2959C32.8729 16.6646 33.3375 17.1375 33.3375 17.7083C33.3375 18.2833 32.8729 18.75 32.2959 18.75H29.1709V16.6646ZM29.1709 22.9167H32.2959C32.8729 22.9167 33.3375 23.3875 33.3375 23.9584C33.3375 24.5334 32.8729 25.0021 32.2959 25.0021H29.1709V22.9167ZM16.6688 18.75C16.6688 17.6 17.6021 16.6625 18.7542 16.6625C19.9021 16.6625 20.8375 17.6 20.8375 18.75V22.9167C20.8375 24.0729 19.9021 25.0021 18.7542 25.0021C17.6021 25.0021 16.6688 24.0729 16.6688 22.9167V18.75Z" fill="#63B867"/>
<path d="M42.7167 22.9167H44.798C45.373 22.9167 45.8417 23.3875 45.8417 23.9584C45.8417 24.5334 45.373 25.0021 44.798 25.0021H37.5042V29.1667H44.798C47.6709 29.1667 50.0084 26.8313 50.0084 23.9584C50.0084 21.0958 47.6709 18.75 44.798 18.75H42.7167C42.1396 18.75 41.6709 18.2833 41.6709 17.7083C41.6709 17.1375 42.1396 16.6646 42.7167 16.6646H50.0084V12.5H42.7167C39.8438 12.5 37.5042 14.8417 37.5042 17.7083C37.5042 20.5792 39.8438 22.9167 42.7167 22.9167Z" fill="#63B867"/>
<path d="M50.0084 46.4438L37.5417 33.9771C38.2459 33.1125 38.9042 32.2167 39.4667 31.25H34.4417C31.3834 35.0563 26.7021 37.5 21.4542 37.5C16.2063 37.5 11.5208 35.0584 8.46459 31.25H3.4375C7.04376 37.4646 13.7604 41.6667 21.45 41.6667C26.4438 41.6667 31.0104 39.875 34.5979 36.9292L47.0605 49.3875L50.0084 46.4438Z" fill="#63B867"/>
</svg>
